!!!OTL: Shanli laobiao changxinge
!!!ARE: Asia, China,ÿJiangxi Duchang
!! IV, 201
!!!SCT: C1792
!!!YEM: Copyright 1995, estate of Helmut Schaffrath.
**kern
*ICvox
*Ivox
*M2/4
*k[]
*C:
{8gg
16ee
16gg
8ee
8gg
=1
8cc
16cc
16a
4dd}
=2
{8gg
16ee
16gg
8ee
8gg
=3
8cc
16cc
16a
4g}
=4
{8gg
16ee
16gg
8ee
8gg
=5
8cc
16cc
16a
8dd
8dd}
=6
{8gg
8a
8cc
8cc
=7
8cc
16cc
16a
4g}
=8
{8a
8a
4g
=9
16a
16a
8a
4g}
=10
{8a
16a
16a
4g}
=11
{8gg
16dd
16ee
8gg
16dd
16ee
=12
16cc
8cc
16a
4g}
=13
{8a
8a
4g}
=14
{8gg
8ee
16ee
16ee
16ee
16gg
=15
8cc
16a
16cc
4dd}
=16
{8cc
16a
16cc
8dd
8dd
=17
8a
8a
4g}
=18
{4a
4a
=19
2g}
==
!!!AGN: Shange, Tiange
!!!AMT: simple duple
!!!AIN: vox
!!!EED: Helmut Schaffrath
!!!EEV: 1.0
*-
